X: 10463
T: HIGHLAND WHISKY -- Strathspey
C: Arr. by W. B. Laybourn
R: strathspey
B: K\"ohler's Violin Repository, v.1, 1885 p.46 #3
F: http://www.archive.org/details/klersviolinrepos01edin
Z: 2011 John Chambers <jc:trillian.mit.edu>
M: C|
L: 1/16
K: A
uE3 |\
AA3 (A3B) (A3B) ce3 | BB3 (B3c) (d3e) f3a | AA3 (A3B) (A3B) ce3 | (e2fg) (a3f) c3B A2 :|
ue2 |\
(cBA2) (e3A) (f3A) (e3A) | GB3 (B3A) (G3B) Be3 | (dcBA) (e3A) (f3A) (e3A) | (e2fg) (.a3.d) c3B A2e2 |
(cBA2) (e3A) (f3A) (e3A) | GB3 (B3A) G3B B3c | Ac3 Bd3 ce3 df3 | (e2fg) "_D.C."(.a3.d) "_Segue Reel."c3B A2 |]

%%sep 2 1 500

